X: 13173
T: First Of May, The
R: hornpipe
M: 4/4
K: Amixolydian
|:EAAB c2 (3ABc|dcde f2ef|gfec dfec|dcAF G2 FG|
EA AB c2 (3ABc|dcde f2 ef|gfec dedc|1 (3ABA AG A2FG:|2 (3ABA AG A2fg||
a2af g2ge|f2fd e2ef|gfec dfec|dcAF G2fg|
a2af g2ge|f2fd e2ef|gfec dfec|(3ABA AG A2fg|
a2af g2ge|f2fd e2ef|gfec dfec|dcAF G2FG|
EAAB c2 (3ABc|dcde f2 ef|gfec dedc|(3ABA AG A2FG||

